src/symbolic/apps/firefox-symbolic.svg

<svg xmlns="http://www.w3.org/2000/svg" width="16" height="16" version="1.1">
 <path style="fill:#444444;opacity:0.3" d="M 7.5 0.76171875 C 5.79937 0.76171875 4.2339385 1.3310191 2.9785156 2.2929688 C 3.0115316 2.3766713 3.0468547 2.4802721 3.0800781 2.5625 C 3.0934941 2.56081 3.1005195 2.5601337 3.1171875 2.5585938 C 3.1188425 2.5583595 3.1192424 2.5588471 3.1210938 2.5585938 L 3.140625 2.5566406 C 3.140625 2.5566406 3.1425781 2.5566406 3.1425781 2.5566406 C 3.1538811 2.5556184 3.1657964 2.5555991 3.1777344 2.5546875 C 3.2015154 2.5515216 3.2213656 2.5511373 3.2285156 2.5507812 C 3.2468756 2.5498812 3.2685495 2.5476429 3.2890625 2.546875 C 3.3054465 2.5457159 3.318585 2.5451742 3.328125 2.5449219 C 3.3661376 2.5438719 3.4003156 2.5448552 3.4316406 2.5449219 C 3.4593386 2.5449201 3.4924059 2.5439485 3.5292969 2.5449219 C 3.6385221 2.5475979 3.7477249 2.5561363 3.8574219 2.5664062 C 3.9605188 2.5760933 4.0622681 2.5881466 4.1582031 2.6035156 A 0.50005 0.50005 0 0 1 4.1621094 2.6054688 C 4.1604414 2.6051887 4.1682899 2.6047319 4.1855469 2.6074219 A 0.50005 0.50005 0 0 1 4.1914062 2.609375 C 4.2024513 2.611235 4.2160749 2.6124644 4.2324219 2.6152344 A 0.50005 0.50005 0 0 1 4.2382812 2.6171875 C 4.2651473 2.6220475 4.2771806 2.6253207 4.2753906 2.625 A 0.50005 0.50005 0 0 1 4.28125 2.625 C 4.2967255 2.6279848 4.3102087 2.6322248 4.3222656 2.6347656 L 4.3203125 2.6328125 C 4.3316025 2.6351315 4.3497709 2.6392912 4.3730469 2.6445312 L 4.3769531 2.6445312 C 4.3938141 2.6483412 4.4047637 2.6529008 4.4023438 2.6523438 A 0.50005 0.50005 0 0 0 4.4042969 2.6523438 C 4.4249819 2.6571867 4.4530681 2.663015 4.4863281 2.671875 L 4.4882812 2.671875 C 4.5137223 2.678545 4.4862375 2.6750775 4.5078125 2.6796875 C 4.6509627 2.5304245 4.8950227 2.2470451 5.2226562 1.9726562 C 5.4080748 1.8173708 5.6103322 1.6708308 5.859375 1.5761719 C 6.1084178 1.4815129 6.44847 1.4504261 6.7421875 1.6132812 A 0.50005 0.50005 0 0 1 6.8417969 2.4160156 C 6.7802941 2.4734429 6.4709694 2.8939827 6.2890625 3.3046875 C 6.1126842 3.7029099 6.0847433 4.0994172 6.1054688 4.1777344 C 6.1820898 4.3106947 6.2033521 4.341725 6.3554688 4.3554688 C 6.7751036 4.393361 6.9411302 4.3742424 7.2109375 4.5546875 C 7.336889 4.6389229 7.4305105 4.8388501 7.4550781 4.9414062 C 7.5647369 5.217898 7.5032429 5.3304753 7.46875 5.4746094 C 7.433752 5.6208539 7.3852377 5.7615114 7.2851562 5.9101562 C 7.1503615 6.1102322 7.0664413 6.2143363 6.8261719 6.3574219 C 6.7451792 6.405623 6.7132252 6.4165375 6.6328125 6.4550781 C 6.5523998 6.4936188 6.4543702 6.5399593 6.3535156 6.5859375 L 6.3535156 6.5839844 C 6.1345814 6.6841212 5.8843029 6.7587781 5.6875 6.8515625 C 5.6573438 6.8657799 5.652119 6.8727619 5.6269531 6.8867188 C 5.6587148 6.9370706 5.6529155 6.9254346 5.6992188 6.9941406 C 5.759282 7.0832644 5.8330432 7.1877586 5.8730469 7.3671875 C 5.9130506 7.5466164 5.8522624 7.8413674 5.6914062 8.0019531 A 0.50005 0.50005 0 0 1 5.0527344 8.0585938 C 5.0212027 8.0367126 4.8315724 7.938107 4.6484375 7.875 C 4.6237725 7.866501 4.6149178 7.8706812 4.5898438 7.8632812 C 4.6200678 7.9439024 4.6544345 8.0320867 4.7558594 8.1425781 C 5.0149692 8.4248502 5.5106116 8.7139906 5.9960938 8.8320312 A 0.50005 0.50005 0 0 1 6.0136719 8.8378906 C 6.0513833 8.8485975 6.0749947 8.8512064 6.1855469 8.8242188 C 6.2960991 8.797231 6.4726273 8.7341518 6.7128906 8.6601562 C 7.2006905 8.5099454 7.5113194 8.4861739 7.7792969 8.4863281 C 8.054429 8.4864979 8.2952368 8.5301544 8.5332031 8.6269531 C 8.7239632 8.704542 8.8878081 8.8147103 9.0371094 8.9394531 C 9.1864107 9.0641959 9.3192878 9.1853076 9.4199219 9.3964844 A 0.50005 0.50005 0 0 1 9.4667969 9.5703125 C 9.4877045 9.8222035 9.3343188 10.106896 9.1640625 10.234375 C 8.9938062 10.361856 8.8327327 10.404626 8.6796875 10.441406 C 8.3735972 10.514953 8.0649871 10.541663 7.8574219 10.595703 C 7.8441432 10.59916 7.594883 10.769185 7.3125 10.992188 C 7.0583157 11.19292 6.6972616 11.401202 6.2558594 11.449219 C 6.7043062 11.521697 7.300903 11.502089 7.8535156 11.5 C 8.6158737 11.495824 9.1679843 11.247139 9.609375 10.804688 C 10.04861 10.364396 10.369989 9.7052152 10.544922 8.8828125 C 10.553802 8.8070639 10.564453 8.6479278 10.564453 8.4941406 C 10.564453 7.9463766 10.478751 7.5545757 10.253906 7.0605469 C 10.083456 6.686288 9.8197036 6.187887 9.4238281 5.75 A 0.50005 0.50005 0 0 1 9.3984375 5.71875 C 8.9636972 5.1489465 8.6680663 4.4774581 8.5390625 3.765625 C 8.4679488 3.374138 8.4783686 2.8608592 8.5449219 2.4707031 C 8.5970759 2.1650595 8.6819443 1.8271783 8.7773438 1.5644531 A 0.50005 0.50005 0 0 0 8.7792969 1.5644531 C 8.8560723 1.3543723 8.9425752 1.1440515 9.0292969 0.93359375 C 8.5345388 0.82996178 8.0258435 0.76171875 7.5 0.76171875 z M 10.037109 1.2167969 C 9.926805 1.4276376 9.8158956 1.64047 9.71875 1.90625 C 9.6560463 2.0789383 9.5723202 2.3979841 9.53125 2.6386719 C 9.5043533 2.7963486 9.5075432 3.5003911 9.5234375 3.5878906 C 9.6243835 4.1449034 9.856203 4.669421 10.193359 5.1113281 L 10.166016 5.0800781 C 10.664893 5.6318978 10.971998 6.2248593 11.164062 6.6464844 C 11.437594 7.2474879 11.564453 7.830476 11.564453 8.4941406 C 11.564453 8.6954513 11.554753 8.888072 11.533203 9.0449219 A 0.50005 0.50005 0 0 1 11.527344 9.0800781 C 11.323938 10.046276 10.935355 10.891286 10.318359 11.509766 C 9.7013639 12.128245 8.8503435 12.4946 7.8574219 12.5 C 7.3252414 12.50201 6.6384728 12.552864 5.9921875 12.429688 C 5.6690449 12.368099 5.3455242 12.261093 5.0664062 12.042969 C 4.7872884 11.824844 4.5767225 11.484844 4.5078125 11.085938 A 0.50005 0.50005 0 0 1 5 10.5 L 6.1386719 10.5 C 6.2521553 10.5 6.4489452 10.398506 6.6914062 10.207031 C 6.9338673 10.015556 7.166239 9.7432631 7.6054688 9.6289062 C 7.7912845 9.5805278 7.919394 9.5642503 8.078125 9.5390625 C 7.9879513 9.5045041 7.9528326 9.4864352 7.7792969 9.4863281 C 7.5441746 9.4861928 7.4270626 9.4861324 7.0078125 9.6152344 C 6.7953383 9.6806714 6.6197873 9.7466081 6.421875 9.7949219 C 6.226798 9.8425435 5.9880612 9.8638192 5.75 9.7988281 C 5.0785525 9.6333826 4.4517827 9.2912036 4.0195312 8.8203125 C 3.8021678 8.5835186 3.627448 8.306214 3.5625 7.9804688 C 3.497552 7.6547235 3.5716381 7.2788616 3.7890625 6.984375 A 0.50005 0.50005 0 0 1 4.1679688 6.7832031 C 4.2995405 6.7770405 4.4063665 6.8256278 4.5253906 6.8476562 A 0.50005 0.50005 0 0 1 4.5253906 6.8378906 C 4.5253906 6.5574344 4.6843015 6.3444798 4.8261719 6.21875 C 4.9680423 6.0930202 5.1150662 6.0154854 5.2597656 5.9472656 C 5.5491645 5.8108261 5.859171 5.7116076 5.9375 5.6757812 C 6.0324705 5.6324827 6.1278332 5.5878854 6.2011719 5.5527344 C 6.2745111 5.5175844 6.3581331 5.4720519 6.3144531 5.4980469 C 6.2447775 5.5395402 6.4083762 5.3939235 6.4414062 5.3671875 C 6.3691104 5.3502525 6.4368138 5.3671965 6.2636719 5.3515625 C 5.8283288 5.3122291 5.4183388 5.0300775 5.203125 4.6445312 A 0.50005 0.50005 0 0 1 5.1796875 4.5957031 C 4.98048 4.1277784 5.1730282 3.6939871 5.3320312 3.2695312 C 5.261781 3.3435086 5.176736 3.4272651 5.1132812 3.4882812 L 5.1035156 3.4980469 C 5.0868326 3.5159909 5.0711985 3.5372646 5.0078125 3.5878906 C 4.9377604 3.643841 4.77993 3.71318 4.6640625 3.71875 C 4.4323276 3.729896 4.386698 3.6809259 4.2285156 3.6386719 C 4.2193326 3.6362099 4.2008292 3.63087 4.1757812 3.625 C 4.1605032 3.6214486 4.1528731 3.6199137 4.1582031 3.6210938 A 0.50005 0.50005 0 0 1 4.1542969 3.6210938 C 4.1501229 3.6201437 4.1377986 3.6171212 4.1191406 3.6132812 A 0.50005 0.50005 0 0 0 4.1171875 3.6132812 C 4.1097815 3.6117213 4.1033763 3.610515 4.0976562 3.609375 C 4.0703713 3.604475 4.0573738 3.6013424 4.0585938 3.6015625 C 4.0488887 3.5999425 4.0391366 3.5980231 4.0253906 3.5957031 C 4.0208906 3.5950731 4.0137767 3.5947669 3.9960938 3.5917969 C 3.9205403 3.5797679 3.842892 3.5678069 3.765625 3.5605469 C 3.676646 3.5522119 3.5871313 3.5469619 3.5039062 3.5449219 C 3.4837842 3.544391 3.4577375 3.5449219 3.4296875 3.5449219 C 3.4025855 3.5448641 3.3804061 3.5444786 3.3613281 3.5449219 C 3.3561936 3.545286 3.3537687 3.5449669 3.3554688 3.5449219 A 0.50005 0.50005 0 0 1 3.3398438 3.546875 C 3.3197927 3.547495 3.2992147 3.5477581 3.2773438 3.5488281 A 0.50005 0.50005 0 0 1 3.2734375 3.5488281 C 3.2553535 3.5498881 3.237824 3.5528175 3.21875 3.5546875 A 0.50005 0.50005 0 0 1 3.2089844 3.5546875 C 3.2016944 3.5553675 3.1892425 3.5569769 3.1640625 3.5605469 A 0.50005 0.50005 0 0 1 3.1425781 3.5625 A 0.50005 0.50005 0 0 1 3.0605469 3.5703125 C 3.0501879 3.5702755 3.023671 3.575344 2.984375 3.59375 A 0.50005 0.50005 0 0 1 2.3398438 3.3925781 C 2.2747496 3.2809059 2.2232861 3.151205 2.171875 3.0214844 C 2.062004 3.1342152 1.9484837 3.2437509 1.8457031 3.3632812 C 1.7553781 6.3532345 2.4547612 9.9557453 4.4511719 12.068359 C 6.4177965 14.149453 9.6716077 14.772223 11.078125 13.734375 C 12.574238 12.630415 11.77226 6.5348885 11.210938 2.6035156 C 10.93605 2.2076566 10.657848 1.7868903 10.382812 1.3476562 C 10.269392 1.2998559 10.153295 1.2590365 10.037109 1.2167969 z"/>
 <path style="fill:#444444" d="m 10.135253,2e-8 -0.08935,0.11309524 c -0.01538,0.0193905 -0.03043,0.0390895 -0.046138,0.0595238 C 9.6527304,0.64022288 9.4554632,1.1684231 9.2480885,1.7358631 9.1690385,1.9535698 9.0852279,2.2818938 9.0386158,2.5550595 c -0.046725,0.2739164 -0.050824,0.8825306 -0.00732,1.1220239 0.1149749,0.6344229 0.3779658,1.23224 0.7639158,1.7380953 0.4473764,0.4948533 0.7333054,1.0403009 0.9145424,1.4382438 0.249188,0.5475162 0.354492,1.0349108 0.354492,1.6406251 0,0.1825791 -0.01026,0.3702572 -0.02563,0.4821429 C 10.660882,10.770465 9.6106157,11.990384 7.855336,12 6.7442009,12.0042 5.2014143,12.165952 5,11 l 1.1384914,0 C 6.771167,11 7.2782632,10.229954 7.7307717,10.11214 8.2685428,9.9721274 9,10 8.967735,9.6112773 8.8840727,9.4357151 8.5905565,9.1905466 8.3444439,9.0904439 8.1383064,9.0065923 8.026027,8.9856854 7.7790144,8.985533 7.5274645,8.9853882 7.3141221,8.9976625 6.8605971,9.1373189 6.4078596,9.2767513 6.1569119,9.3972762 5.8776868,9.318 4.716385,9.035638 3.626725,8.0479124 4.192,7.2822857 4.531975,7.2663617 5.1221231,7.4986629 5.337375,7.6480343 5.543325,7.4424305 5.0963231,7.1261006 5.024625,6.8370225 c 0,-0.360832 0.8237719,-0.5708823 1.1210351,-0.7068454 C 6.3414852,6.0408971 6.5324202,5.9492579 6.5697326,5.9270522 6.6508076,5.8787703 6.8071203,5.7246343 6.8707579,5.6301771 6.9678453,5.4859791 7.0316025,5.2189501 6.99234,5.1227368 6.943065,5.0018187 7.1116944,4.9265661 6.3095693,4.8541356 6.0068319,4.8267832 5.7999823,4.6861825 5.6403824,4.4002663 5.3607805,3.7435006 6.1456625,2.380857 6.5,2.05 5.9364126,1.7375123 5.0941712,2.8156025 4.7585463,3.1357204 4.6510338,3.2438005 4.6838993,3.2421437 4.3579117,3.1550655 c -0.02175,-0.00583 -0.044283,-0.01096 -0.067383,-0.016369 -0.00825,-0.0019 -0.016654,-0.00413 -0.024904,-0.00595 -0.015,-0.00343 -0.030769,-0.00651 -0.046143,-0.00967 -0.010875,-0.00229 -0.021708,-0.00453 -0.032959,-0.0067 -0.01275,-0.00229 -0.02526,-0.00512 -0.038085,-0.00744 -0.0135,-0.00229 -0.026707,-0.00441 -0.040284,-0.0067 -0.00975,-0.00152 -0.019549,-0.00282 -0.029299,-0.00446 -0.086324,-0.013829 -0.1765086,-0.025691 -0.2673336,-0.034225 -0.099338,-0.0093 -0.1989409,-0.015497 -0.2951659,-0.017855 -0.028875,-7.619e-4 -0.057643,-7.619e-4 -0.085693,-7.619e-4 -0.030375,-6.47e-5 -0.059598,-4.04e-5 -0.088623,7.619e-4 -0.00562,1.487e-4 -0.01122,3.63e-4 -0.016845,7.62e-4 -0.024375,7.619e-4 -0.048415,0.00183 -0.071778,0.00297 -0.00375,1.867e-4 -0.00652,3.63e-4 -0.00952,7.619e-4 -0.025875,0.00152 -0.050595,0.00358 -0.074707,0.00595 -0.00375,1.944e-4 -0.00399,3.632e-4 -0.00586,7.62e-4 -0.02475,0.00229 -0.047737,0.00573 -0.070313,0.00893 l -7.499e-4,0 c -0.010125,0.00152 -0.021011,0.00274 -0.030761,0.00446 -0.1074375,-3.809e-4 -0.2059639,0.03056 -0.2900389,0.06994 C 2.4893144,2.6561865 2.2192625,1.4847391 2,0.99999996 1.48715,1.2730324 1.3374867,3.138688 1.2502242,3.5960023 c -0.033375,0.1818552 -0.07159,0.5349912 -0.071778,0.6599703 -3.42e-5,0.017989 -0.00445,0.024998 -0.00513,0.037947 C 0.43233787,5.475261 0,6.8763257 0,8.3809524 0,12.588836 3.3578643,16 7.4999998,16 11.642136,16 15,12.588836 15,8.3809524 15,5.7142857 13.824478,4.3441852 12.660645,2.4724703 c 0,-0.00114 8.7e-5,-0.00183 -0.0036,-0.00298 -0.171559,-0.2605903 -0.32,-0.546668 -0.44022,-0.8303513 -0.01875,-0.062537 -0.04101,-0.1138393 -0.04907,-0.1138393 -0.0037,0 -0.0072,0.00247 -0.01171,0.0067 -0.151232,0.1857022 -0.22435,0.908908 -0.305425,1.134667 C 11.2652,1.8429737 10.539498,1.0241793 10.157227,0.11160716 Z"/>
</svg>

<svg xmlns="http://www.w3.org/2000/svg" width="16" height="16"><path d="M7.5.762c-1.7 0-3.266.569-4.521 1.531.033.084.068.187.101.27a.944.944 0 0 1 .037-.004h.004l.02-.002h.002l.035-.002c.024-.003.043-.004.05-.004l.061-.004a.889.889 0 0 1 .04-.002h.2c.11.003.219.011.328.021.104.01.205.022.301.038a.5.5 0 0 1 .004.001l.024.002a.5.5 0 0 1 .005.002l.041.006a.5.5 0 0 1 .006.002.385.385 0 0 1 .037.008.5.5 0 0 1 .006 0l.041.01-.002-.002.053.012h.004a.109.109 0 0 1 .025.007.5.5 0 0 0 .002 0c.021.005.05.011.082.02h.002c.026.007-.002.003.02.008.143-.15.387-.433.715-.707.185-.156.387-.302.636-.397.25-.094.59-.126.883.037a.5.5 0 0 1 .1.803c-.062.057-.371.478-.553.889-.176.398-.204.794-.184.873.077.133.098.164.25.177.42.038.586.02.856.2.126.084.22.284.244.386.11.277.048.39.014.534a1.27 1.27 0 0 1-.184.435c-.135.2-.219.304-.459.447-.08.049-.113.06-.193.098-.08.039-.179.085-.28.13v-.001c-.218.1-.469.175-.665.268-.03.014-.036.02-.061.035.032.05.026.038.072.107.06.09.134.194.174.373.04.18-.02.474-.182.635a.5.5 0 0 1-.638.057 2.44 2.44 0 0 0-.405-.184c-.024-.008-.033-.004-.058-.012a.76.76 0 0 0 .166.28c.259.282.755.571 1.24.689a.5.5 0 0 1 .018.006c.037.01.061.013.172-.014.11-.027.287-.09.527-.164.488-.15.798-.174 1.066-.174.275 0 .516.044.754.141.191.078.355.188.504.312.15.125.282.246.383.457a.5.5 0 0 1 .047.174.829.829 0 0 1-.303.664c-.17.128-.331.17-.484.207-.306.074-.615.1-.823.155a6.715 6.715 0 0 0-.545.396c-.254.2-.615.41-1.056.457.448.073 1.045.053 1.598.051.762-.004 1.314-.253 1.755-.695.44-.44.761-1.1.936-1.922.009-.076.02-.235.02-.389 0-.548-.086-.94-.311-1.433-.17-.375-.434-.873-.83-1.311a.5.5 0 0 1-.026-.031 4.566 4.566 0 0 1-.859-1.953 4.086 4.086 0 0 1 .006-1.295c.052-.306.137-.644.232-.907a.5.5 0 0 0 .002 0c.077-.21.164-.42.25-.63A7.435 7.435 0 0 0 7.5.762zm2.537.455c-.11.21-.221.423-.318.69a5.027 5.027 0 0 0-.188.732 7.101 7.101 0 0 0-.008.949c.101.557.333 1.081.67 1.523l-.027-.03c.499.55.806 1.144.998 1.565.274.601.4 1.184.4 1.848 0 .201-.01.394-.03.55a.5.5 0 0 1-.007.036c-.203.966-.592 1.811-1.209 2.43-.617.618-1.468.985-2.46.99-.533.002-1.22.053-1.866-.07-.323-.062-.646-.169-.926-.387a1.55 1.55 0 0 1-.558-.957A.5.5 0 0 1 5 10.5h1.139c.113 0 .31-.101.552-.293.243-.191.475-.464.914-.578.186-.048.314-.065.473-.09-.09-.034-.125-.053-.299-.053-.235 0-.352 0-.771.13-.213.065-.388.13-.586.179a1.352 1.352 0 0 1-.672.004c-.671-.166-1.298-.508-1.73-.979-.218-.236-.393-.514-.457-.84-.065-.325.009-.701.226-.996a.5.5 0 0 1 .379-.2c.132-.007.238.042.357.064a.5.5 0 0 1 0-.01c0-.28.16-.494.301-.62.142-.125.29-.203.434-.27.29-.137.6-.236.678-.272l.263-.123c.074-.035.157-.08.113-.055-.07.042.094-.104.127-.13-.072-.018-.004 0-.177-.016a1.397 1.397 0 0 1-1.06-.707.5.5 0 0 1-.024-.05c-.2-.467-.007-.901.152-1.325a7.31 7.31 0 0 1-.219.218l-.01.01c-.016.018-.032.04-.095.09a.722.722 0 0 1-.344.13c-.232.012-.277-.037-.435-.08l-.053-.013-.018-.004a.5.5 0 0 1-.004 0l-.035-.008a.5.5 0 0 0-.002 0l-.02-.004a.653.653 0 0 1-.038-.007l-.034-.006-.029-.004a3.64 3.64 0 0 0-.492-.047H3.355a.5.5 0 0 1-.015.002c-.02 0-.04 0-.063.002a.5.5 0 0 1-.004 0c-.018 0-.035.004-.054.006a.5.5 0 0 1-.01 0l-.045.006a.5.5 0 0 1-.021.002.5.5 0 0 1-.082.007.212.212 0 0 0-.077.024.5.5 0 0 1-.644-.201 2.78 2.78 0 0 1-.168-.372c-.11.113-.224.223-.326.342-.09 2.99.609 6.593 2.605 8.705 1.967 2.081 5.22 2.704 6.627 1.666 1.496-1.104.694-7.2.133-11.13a31.75 31.75 0 0 1-.828-1.256c-.114-.048-.23-.089-.346-.131z" fill="#444" opacity=".3"/><path d="M10.135 0l-.09.113-.045.06c-.347.467-.545.995-.752 1.563-.079.218-.163.546-.21.82-.046.273-.05.882-.007 1.121.115.635.378 1.232.764 1.738.448.495.734 1.04.915 1.438.249.548.354 1.035.354 1.641 0 .183-.01.37-.025.482C10.66 10.77 9.61 11.99 7.855 12c-1.11.004-2.654.166-2.855-1h1.138c.633 0 1.14-.77 1.593-.888.538-.14 1.269-.112 1.237-.5-.084-.176-.377-.421-.624-.522a1.244 1.244 0 0 0-.565-.104c-.252 0-.465.012-.918.151-.453.14-.704.26-.983.181-1.162-.282-2.251-1.27-1.686-2.036.34-.016.93.217 1.145.366.206-.206-.24-.522-.312-.811 0-.36.823-.57 1.12-.707.196-.09.387-.18.425-.203.08-.048.237-.202.3-.297.098-.144.162-.411.122-.507-.049-.121.12-.196-.682-.269-.303-.027-.51-.168-.67-.454-.28-.656.506-2.02.86-2.35-.564-.312-1.406.766-1.741 1.086-.108.108-.075.106-.401.02-.022-.007-.044-.012-.067-.017l-.025-.006-.047-.01a1.959 1.959 0 0 0-.032-.007l-.039-.007-.04-.007-.03-.004a4.158 4.158 0 0 0-.562-.052l-.085-.001a2.98 2.98 0 0 0-.262.011h-.006l-.07.01-.031.004a.68.68 0 0 0-.29.07C2.488 2.656 2.218 1.485 2 1c-.513.273-.663 2.139-.75 2.596a5.453 5.453 0 0 0-.072.66c0 .018-.004.025-.005.038A7.668 7.668 0 0 0 0 8.38C0 12.589 3.358 16 7.5 16c4.142 0 7.5-3.411 7.5-7.619 0-2.667-1.176-4.037-2.34-5.909l-.003-.003a5.252 5.252 0 0 1-.44-.83c-.019-.062-.041-.114-.05-.114-.003 0-.006.003-.011.007-.151.186-.224.909-.305 1.135-.586-.824-1.312-1.643-1.694-2.555z" fill="#444"/></svg>
